X:1
T:Der er en Vej
T:(Salmer og Aandelige Sange, no.6)
T:Carl Nielsen (FS83/6)
T:N.F.S. Grundtvig
T:Der er en Vej (Salmer og Aandelige Sange, no.6)
T:Copyright (c) 2006 by Choral Public Domain Library (http://www.cpdl.org). Edition may be freely distributed, duplicated, performed or recorded.
T:Copyright (c) 2006 by Choral Public Domain Library (http://www.cpdl.org). Edition may be freely distributed, duplicated, performed or recorded.
T:Copyright (c) 2006 by Choral Public Domain Library (http://www.cpdl.org). Edition may be freely distributed, duplicated, performed or recorded.
T:Copyright (c) 2006 by Choral Public Domain Library (http://www.cpdl.org). Edition may be freely distributed, duplicated, performed or recorded.
C:Carl Nielsen (FS83/6)
Z:N.F.S. Grundtvig
Z:Copyright (c) 2006 by Choral Public Domain Library (http://www.cpdl.org).
Z:Edition may be freely distributed, duplicated, performed or recorded.
%%score [ 1 2 3 4 ]
L:1/8
M:3/2
K:G
V:1 treble nm="S." snm="S."
V:2 treble nm="A." snm="A."
V:3 treble-8 transpose=-12 nm="T." snm="T."
V:4 bass nm="B." snm="B."
V:1
 D2 | G2 F2 G6 A2 | B2 c2 B4 A4 | G4 !fermata!F4 z2 G2 | A2 B2 c6 d2 | B2 A2 G4 F4 | %6
w: Der|er en Vej, som|Ver- den ik- ke|ken- der, den|“Li- vets Vej”, som|ej er gjort af|
 E4 !fermata!D4 z2 G2 | B2 c2 d6 B2 | e2 d2 c4 B4 | A2 B2 E6 F2 | (G4 A4) B4 | A4 !fermata!G4 z2 |] %12
w: Hæn- der, en|Løn- gangs- Sti, hver|Sten for- bi, til|Li- vets Land med|Glæ- * dens|Kil- der.|
"^Der er en Vej,som Verden ikke kender,den “Livets Vej”,som ej er gjort af Hænder,en Løngangs-Sti,hver Sten forbi,til Livets Land med Glædens Kilder.Sig aabne maade tykke, mørke Skove,os bære maaden skøre, falske Vove;det høje Fjæld,det skumle Hel,kan Livets Vej for os ej spærre.Just for de smaaer Løngangs-Stien lavet,til trygt at gaai Ørken og paa Havet,paa Troens Grundi allen Stund,ved Midnatstid som midt paa Dagen.Den Vej paa Jordtil Himlens høje Salesig sælsomt snorigennem Skyggedale;som solsprængt Skyaf Dagen nypaa Herrens Vej er hver en Skygge.Vel tornestrø’ter Stien somme Steder,men rosenbødt,som Sorgen er med Glæder;af Jesu Røstopvokser Trøst,med Rosen læges Tornestikket.Den Vej paa Jordtil Livets Land og Lykkeer Jesu Ordmed Straaleglimt i Skygge;de strække sigtil Himmerig,hvor de kom fra, hvor de har hjemme.Med Jesu AandGuds Menighed af Naade,vi Haand i Haandpaa kærlig Børne-Maadegaa trøstig fremtil Lysets Hjem,til Fader-Huset i det høje.Alt som vi gaa,vi dog af Gud oplærestil at forstaa,vi hæves og vi bæresi Ledebaandaf Livets Aandog af vor Faders Engleskare.                      N.F.S. Grundtvig (1783-1872)""^1.2.3.4.5.6.7.8." z12 |] %13
w: |
V:2
 D2 | D2 D2 (D2 C2 B,2) D2 | D2 A2 (A2 G2) (G2 F2) | E4 !fermata!^D4 z2 E2 | =D2 F2 (G2 E2 G2) D2 | %5
w: Der|er en Vej, _ _ som|Ver- den ik- * ke _|ken- der, den|“Li- vets Vej”, _ _ som|
 G2 F2 E4 D4 | (D2 ^C2) !fermata!A,4 z2 E2 | F2 G2 (G2 F2) G4 | G2 F2 E4 E4 | C2 D2 D4 C4 | %10
w: ej er gjort af|Hæn- * der, en|Løn- gangs- Sti, _ hver|Sten for- bi, til|Li- vets Land med|
 (B,4 E4) G4 | (G2 F2) !fermata!G4 z2 |] z12 |] %13
w: Glæ- * dens|Kil- * der.||
V:3
 B2 | B2 A2 G6 F2 | G2 E2 (D2 d2) (e2 d2) | B4 !fermata!B4 z2 B2 | A2 d2 (c4 B2) A2 | d2 d2 B4 A4 | %6
w: Der|er en Vej, som|Ver- den ik- * ke _|ken- der, den|“Li- vets Vej”, _ som|ej er gjort af|
 A4 !fermata!F4 z2 B2 | d2 e2 (d2 A2 B2) d2 | c2 A2 A6 ^G2 | A2 =F2 G4 A4 | (B4 c4) d4 | %11
w: Hæn- der, en|Løn- gangs- Sti, _ _ hver|Sten for- bi, til|Li- vets Land med|Glæ- * dens|
 (e2 d2) !fermata!B4 z2 |] z12 |] %13
w: Kil- * der.||
V:4
 G,2 | G,2 D,2 E,6 D,2 | G,,2 A,,2 B,,4 (C,2 D,2) | (E,2 G,2) !fermata!B,4 z2 E,2 | %4
w: Der|er en Vej, som|Ver- den ik- ke _|ken- * der, den|
 F,2 D,2 (E,2 A,2 G,2) F,2 | G,2 D,2 (E,2 E,,2) (F,,2 G,,2) | A,,4 !fermata!D,4 z2 E,2 | %7
w: “Li- vets Vej”, _ _ som|ej er gjort _ af _|Hæn- der, en|
 D,2 C,2 (B,,2 D,2) G,4 | C,2 D,2 (A,,2 C,2) E,4 | =F,2 D,2 E,4 A,,4 | %10
w: Løn- gangs- Sti, _ hver|Sten for- bi, _ til|Li- vets Land med|
 (E,2 D,2 C,2 B,,2) (A,,2 G,,2) | C,2 D,2 !fermata![G,,D,]4 z2 |] z12 |] %13
w: Glæ- * * * dens _|Kil- * der.||

